icons/mini/cpu-chip.svg

<svg width="20" height="20" viewBox="0 0 20 20" fill="none" xmlns="http://www.w3.org/2000/svg">
<path d="M14 6H6V14H14V6Z" fill="#0F172A"/>
<path fill-rule="evenodd" clip-rule="evenodd" d="M9.25 3V1.75C9.25 1.33579 9.58579 1 10 1C10.4142 1 10.75 1.33579 10.75 1.75V3H12.25V1.75C12.25 1.33579 12.5858 1 13 1C13.4142 1 13.75 1.33579 13.75 1.75V3H14.25C15.7688 3 17 4.23122 17 5.75V6.25H18.25C18.6642 6.25 19 6.58579 19 7C19 7.41421 18.6642 7.75 18.25 7.75H17V9.25H18.25C18.6642 9.25 19 9.58579 19 10C19 10.4142 18.6642 10.75 18.25 10.75H17V12.25H18.25C18.6642 12.25 19 12.5858 19 13C19 13.4142 18.6642 13.75 18.25 13.75H17V14.25C17 15.7688 15.7688 17 14.25 17H13.75V18.25C13.75 18.6642 13.4142 19 13 19C12.5858 19 12.25 18.6642 12.25 18.25V17H10.75V18.25C10.75 18.6642 10.4142 19 10 19C9.58579 19 9.25 18.6642 9.25 18.25V17H7.75V18.25C7.75 18.6642 7.41421 19 7 19C6.58579 19 6.25 18.6642 6.25 18.25V17H5.75C4.23122 17 3 15.7688 3 14.25V13.75H1.75C1.33579 13.75 1 13.4142 1 13C1 12.5858 1.33579 12.25 1.75 12.25H3V10.75H1.75C1.33579 10.75 1 10.4142 1 10C1 9.58579 1.33579 9.25 1.75 9.25H3V7.75H1.75C1.33579 7.75 1 7.41421 1 7C1 6.58579 1.33579 6.25 1.75 6.25H3V5.75C3 4.23122 4.23122 3 5.75 3H6.25V1.75C6.25 1.33579 6.58579 1 7 1C7.41421 1 7.75 1.33579 7.75 1.75V3H9.25ZM4.5 5.75C4.5 5.05964 5.05964 4.5 5.75 4.5H14.25C14.9404 4.5 15.5 5.05964 15.5 5.75V14.25C15.5 14.9404 14.9404 15.5 14.25 15.5H5.75C5.05964 15.5 4.5 14.9404 4.5 14.25V5.75Z" fill="#0F172A"/>
</svg>

<svg xmlns="http://www.w3.org/2000/svg" viewBox="0 0 20 20" fill="currentColor" aria-hidden="true" data-slot="icon">
  <path d="M14 6H6v8h8V6Z"/>
  <path fill-rule="evenodd" d="M9.25 3V1.75a.75.75 0 0 1 1.5 0V3h1.5V1.75a.75.75 0 0 1 1.5 0V3h.5A2.75 2.75 0 0 1 17 5.75v.5h1.25a.75.75 0 0 1 0 1.5H17v1.5h1.25a.75.75 0 0 1 0 1.5H17v1.5h1.25a.75.75 0 0 1 0 1.5H17v.5A2.75 2.75 0 0 1 14.25 17h-.5v1.25a.75.75 0 0 1-1.5 0V17h-1.5v1.25a.75.75 0 0 1-1.5 0V17h-1.5v1.25a.75.75 0 0 1-1.5 0V17h-.5A2.75 2.75 0 0 1 3 14.25v-.5H1.75a.75.75 0 0 1 0-1.5H3v-1.5H1.75a.75.75 0 0 1 0-1.5H3v-1.5H1.75a.75.75 0 0 1 0-1.5H3v-.5A2.75 2.75 0 0 1 5.75 3h.5V1.75a.75.75 0 0 1 1.5 0V3h1.5ZM4.5 5.75c0-.69.56-1.25 1.25-1.25h8.5c.69 0 1.25.56 1.25 1.25v8.5c0 .69-.56 1.25-1.25 1.25h-8.5c-.69 0-1.25-.56-1.25-1.25v-8.5Z" clip-rule="evenodd"/>
</svg>
